icons/svg/evernote.svg

﻿<?xml version="1.0" encoding="utf-8"?>
<!DOCTYPE svg PUBLIC "-//W3C//DTD SVG 1.1//EN" "http://www.w3.org/Graphics/SVG/1.1/DTD/svg11.dtd">
<svg xmlns="http://www.w3.org/2000/svg" xmlns:xlink="http://www.w3.org/1999/xlink" version="1.1" baseProfile="full" width="24" height="24" viewBox="0 0 24.00 24.00" enable-background="new 0 0 24.00 24.00" xml:space="preserve">
	<path fill="#000000" fill-opacity="1" fill-rule="evenodd" stroke-width="0.2" stroke-linejoin="round" d="M 15.0865,11.6304C 15.0865,11.6304 15.2774,10.3531 16.0178,10.3531C 16.7587,10.3531 17.776,12.0587 17.776,12.0587C 17.776,12.0587 15.4553,11.6304 15.0865,11.6304 Z M 18.9853,4.68689C 18.6398,4.09133 16.832,3.4051 15.8938,3.4051C 14.9567,3.4051 13.4762,3.4051 13.4762,3.4051C 13.4762,3.4051 12.7,1.99999 10.8751,1.99999C 9.04869,1.99999 9.17157,2.81401 9.17157,3.5091L 9.17157,6.31911L 8.3438,7.19289L 4.52134,7.19289C 4.52134,7.19289 3.44446,7.9051 3.44446,9.44465C 3.44446,10.9842 3.92223,16.3491 7.13024,16.8453C 10.9258,17.4333 11.5756,15.6693 11.5756,15.4573C 11.5756,14.564 11.598,13.2104 11.598,13.2104C 11.598,13.2104 12.7096,15.334 14.388,15.334C 16.0665,15.334 17.0425,16.2982 17.0425,17.2909C 17.0425,18.2847 17.0425,19.1282 17.0425,19.1282C 17.0425,19.1282 16.98,20.2782 15.9936,20.2782C 15.0056,20.2782 13.8871,20.2782 13.8871,20.2782C 13.8871,20.2782 13.1958,19.7398 13.1958,18.9951C 13.1958,18.2507 13.5338,18.0484 13.9285,18.0484C 14.3229,18.0484 14.6471,18.0942 14.6471,18.0942L 14.6471,16.528C 14.6471,16.528 11.4682,16.5073 11.4682,18.9413C 11.4682,21.3747 13.1307,22 14.4636,22C 15.7951,22 16.6349,22 16.6349,22C 16.6349,22 20.5556,21.4958 20.5556,13.75C 20.5556,6.00333 19.3311,5.28287 18.9853,4.68689 Z M 7.50135,6.31L 4.25957,6.30644L 8.32112,2.21999L 8.32201,5.51578L 7.50135,6.31 Z "/>
</svg>

<svg xmlns="http://www.w3.org/2000/svg" version="1.1" baseProfile="full" width="24" height="24" viewBox="0 0 24.00 24.00" xml:space="preserve"><path fill="#000" fill-opacity="1" fill-rule="evenodd" stroke-width=".2" stroke-linejoin="round" d="M15.086 11.63s.19-1.277.932-1.277c.74 0 1.758 1.706 1.758 1.706s-2.32-.43-2.69-.43zm3.9-6.943c-.346-.596-2.154-1.282-3.092-1.282h-2.418S12.7 2 10.876 2C9.048 2 9.17 2.814 9.17 3.51v2.81l-.828.873H4.52s-1.076.712-1.076 2.252c0 1.54.478 6.904 3.686 7.4 3.796.588 4.446-1.176 4.446-1.388 0-.893.022-2.247.022-2.247s1.112 2.124 2.79 2.124c1.68 0 2.655.964 2.655 1.957v1.838s-.063 1.15-1.05 1.15h-2.106s-.69-.538-.69-1.283c0-.744.337-.947.732-.947.393 0 .717.046.717.046v-1.566s-3.18-.02-3.18 2.413c0 2.435 1.664 3.06 2.997 3.06h2.17s3.922-.504 3.922-8.25c0-7.747-1.225-8.467-1.57-9.063zM7.5 6.31l-3.24-.004L8.32 2.22l.002 3.296-.82.794z"/></svg>
